src/icons/outline/status/positive-check.svg

<svg width="24" height="24" viewBox="0 0 24 24" fill="none" xmlns="http://www.w3.org/2000/svg">
<g clip-path="url(#clip0_4536_416)">
<path d="M15.4707 7.83887C15.727 7.46004 16.2511 7.35897 16.6299 7.61523C17.0086 7.87151 17.1087 8.39563 16.8525 8.77441L11.9941 16.0059C11.7936 16.3065 11.4819 16.4851 11.1367 16.5186H11.0469C10.724 16.5184 10.4346 16.3842 10.2119 16.1504L7.24805 12.9307C6.92495 12.5853 6.94666 12.061 7.29199 11.749C7.62625 11.437 8.16166 11.4597 8.47363 11.7939L10.9697 14.5127L15.4482 7.84961L15.4707 7.83887Z" fill="#3C3B44"/>
<path fill-rule="evenodd" clip-rule="evenodd" d="M12.0059 2C17.5099 2.00016 22.0107 6.49064 22.0107 12.0059C22.0106 17.521 17.521 22.0106 12.0059 22.0107C6.49064 22.0107 2.00016 17.521 2 12.0059C2 6.49054 6.49054 2 12.0059 2ZM12.0059 3.6709C7.40428 3.6709 3.67105 7.3926 3.6709 11.9941C3.6709 16.5958 7.41533 20.3291 12.0059 20.3291V20.3398C16.6073 20.3397 20.3397 16.6073 20.3398 12.0059C20.3398 7.40428 16.6074 3.67105 12.0059 3.6709Z" fill="#3C3B44"/>
</g>
<defs>
<clipPath id="clip0_4536_416">
<rect width="24" height="24" fill="white"/>
</clipPath>
</defs>
</svg>

<svg xmlns="http://www.w3.org/2000/svg" width="24" height="24" fill="none" viewBox="0 0 24 24"><g fill="currentColor" clip-path="url(#a)"><path d="M15.47 7.839a.84.84 0 0 1 1.16-.224.84.84 0 0 1 .223 1.16l-4.859 7.23c-.2.302-.512.48-.857.514h-.09a1.14 1.14 0 0 1-.835-.369l-2.964-3.22a.82.82 0 0 1 .044-1.181.84.84 0 0 1 1.182.045l2.496 2.719 4.478-6.663z"/><path fill-rule="evenodd" d="M12.006 2C17.51 2 22.01 6.49 22.01 12.006c0 5.515-4.49 10.005-10.005 10.005S2 17.52 2 12.006 6.49 2 12.006 2m0 1.67c-4.602 0-8.335 3.723-8.335 8.324 0 4.602 3.744 8.335 8.335 8.335v.01a8.336 8.336 0 0 0 0-16.668" clip-rule="evenodd"/></g><defs><clipPath id="a"><path fill="currentColor" d="M0 0h24v24H0z"/></clipPath></defs></svg>
